X:1
T:Clyne, CMD
T:Clyne, CMD
T:Robert Frederick Smith, 1894
T:Public Domain Courtesy of the Cyber Hymnal™
C:Robert Frederick Smith, 1894
Z:Public Domain
Z:Courtesy of the Cyber Hymnal™
%%score ( 1 2 ) ( 3 4 )
L:1/8
Q:1/4=105
M:4/4
K:F
V:1 treble 
V:2 treble 
V:3 bass 
V:4 bass 
V:1
 D2 | B2 (AG) A2 [D^F]2 | [DG]2 [DF]2 [^CE]2 [CE]2 | [DA]3 [DA] [^CG]2 [DF]2 | [^CE]4 z2 [=CE]2 | %5
 [CF]2 (G_A) [_DA]2 [DG]2 | [_DG]2 ([C_A][B,B]) [=B,A]2 [B,F]2 | [CF]2 [Fc]2 [EB]2 [F_A]2 | %8
 [EG]4 z2 ([Ec]>[EB]) | [FA]2 [CF]2 [B,D]2 [B,B]2 | (AG) (AB) [Cc]2 [Cc]2 | [Dc]2 (BA) [DG]2 D2 | %12
 [CE]4 z2 [Ec]2 | [Fc]2 ([FA][EG]) [DF]2 [DF]2 | [Dd]2 (BA) [EG]2 [Ec]2 | fc BA G3 z F | F6 |] %17
V:2
 D2 | B2 AG A2 x2 | x8 | x8 | x8 | x2 C2 x4 | x8 | x8 | x8 | x8 | C2 C2 x4 | x2 D2 x D2 x | x8 | %13
 x8 | x2 D2 x4 | F2 F2 F2 E2 x | F6 |] %17
V:3
 D,2 | B,2 A,G, A,2 [D,A,]2 | [B,,B,]2 [^G,,=B,]2 [A,,^C]2 [^G,A,]2 | %3
 [F,A,]3 [F,A,] (B,A,) [D,A,]2 | [A,,A,]4 z2 [C,G,]2 | [F,_A,]2 [F,A,]2 [E,B,]2 [_E,B,]2 | %6
 [_E,B,]2 (F,G,) [D,F,]2 [D,_A,]2 | [C,_A,]2 [C,A,]2 [C,G,]2 [C,=B,]2 | [C,C]4 z2 ([C,C]>[C,C]) | %9
 [F,C]2 [A,,A,]2 [B,,F,]2 [G,,G,]2 | (F,E,) (F,G,) [A,,A,]2 [A,,F,]2 | %11
 [B,,F,]2 (G,A,) [B,,B,]2 [B,,B,]2 | [C,G,]4 z2 [C,G,]2 | [F,A,]2 (C^C) [B,,D]2 [B,,B,]2 | %14
 [G,,B,]2 [G,,G,]2 [C,G,]2 [B,,G,]2 | [A,,A,]2 DC [C,C]2 [C,B,]2 x | [F,,F,A,]6 |] %17
V:4
 D,2 | B,2 (A,G,) A,2 x2 | x8 | x4 E,2 x2 | x8 | x8 | x2 _E,2 x4 | x8 | x8 | x8 | C,2 B,,2 x4 | %11
 x2 B,,2 x4 | x8 | x2 A,,2 x4 | x8 | x2 B,,2 x5 | x6 |] %17

